public/library/magic-eden-text-dark.svg

<svg width="270" height="42" viewBox="0 0 270 42" fill="none" xmlns="http://www.w3.org/2000/svg">
<path d="M36.1967 13.1471L39.1888 16.8137C39.5314 17.2256 39.8351 17.5643 39.958 17.757C40.8528 18.6845 41.3545 19.938 41.3539 21.2443C41.2698 22.7853 40.3069 23.8349 39.4151 24.9574L37.3212 27.5214L36.2291 28.8499C36.1898 28.8958 36.1647 28.9523 36.1564 29.0128C36.1481 29.0733 36.1573 29.1347 36.1828 29.1899C36.2082 29.245 36.2487 29.2912 36.2995 29.3229C36.3503 29.3546 36.4089 29.3702 36.4681 29.3682H47.3835C49.0507 29.3682 51.151 30.8294 51.0283 33.048C51.0249 34.0565 50.6336 35.0226 49.9399 35.7355C49.2462 36.4486 48.3062 36.8507 47.3252 36.8542H30.2319C29.1074 36.8542 26.0828 36.9805 25.2363 34.2902C25.0562 33.728 25.0316 33.1256 25.1652 32.5499C25.4113 31.6986 25.8005 30.8982 26.3155 30.1851C27.175 28.8566 28.1056 27.5282 29.0233 26.2395C30.2059 24.5523 31.4209 22.9182 32.6165 21.1978C32.659 21.1418 32.682 21.0728 32.682 21.0018C32.682 20.9308 32.659 20.8619 32.6165 20.8059L28.2736 15.4919C28.2454 15.4533 28.2087 15.4221 28.1667 15.4006C28.1246 15.3791 28.0783 15.3679 28.0314 15.3679C27.9843 15.3679 27.9379 15.3791 27.8959 15.4006C27.8539 15.4221 27.8172 15.4533 27.789 15.4919C26.6257 17.106 21.5333 24.2533 20.4474 25.7014C19.3618 27.1494 16.6863 27.2291 15.2064 25.7014L8.41424 18.6936C8.37084 18.6488 8.31551 18.6183 8.25523 18.606C8.19496 18.5936 8.13248 18.5999 8.0757 18.6241C8.01892 18.6483 7.97041 18.6893 7.93634 18.7419C7.90227 18.7944 7.88415 18.8562 7.88431 18.9194V32.3971C7.90029 33.3534 7.62475 34.291 7.09629 35.0784C6.56783 35.8658 5.81293 36.4635 4.93738 36.7878C4.37794 36.9878 3.78005 37.0477 3.19356 36.9621C2.60708 36.8765 2.04901 36.648 1.56586 36.2957C1.08273 35.9434 0.688535 35.4774 0.41615 34.9368C0.143765 34.3962 0.00108203 33.7963 0 33.1875V8.95565C0.0389374 8.08238 0.34464 7.24395 0.873669 6.55948C1.4027 5.87501 2.12814 5.37932 2.94693 5.14284C3.64925 4.95051 4.38857 4.95244 5.08994 5.14841C5.79132 5.34439 6.42984 5.72745 6.94078 6.25878L17.3843 17.0064C17.4155 17.039 17.4534 17.0642 17.4951 17.0801C17.537 17.096 17.5816 17.1023 17.6259 17.0985C17.6704 17.0947 17.7134 17.0809 17.752 17.0581C17.7907 17.0353 17.824 17.004 17.8496 16.9665L25.2686 6.41156C25.6113 5.98307 26.0412 5.63679 26.528 5.39698C27.0147 5.15717 27.5464 5.02962 28.0863 5.02327H47.3835C47.9115 5.02417 48.4334 5.14095 48.914 5.36582C49.3947 5.59069 49.8231 5.91846 50.1706 6.3272C50.5181 6.73594 50.7766 7.21624 50.9291 7.73597C51.0814 8.2557 51.124 8.80286 51.0541 9.34091C50.9182 10.2742 50.4575 11.1252 49.7575 11.736C49.0575 12.3467 48.1657 12.6758 47.2477 12.6622H36.4423C36.388 12.6635 36.3351 12.6798 36.2889 12.7094C36.2429 12.7389 36.2053 12.7806 36.1803 12.8301C36.1551 12.8796 36.1435 12.9352 36.1464 12.9909C36.1493 13.0466 36.1667 13.1006 36.1967 13.1471Z" fill="#FFFFFF"/>
<path d="M199.268 27.3276H193.946C193.535 27.3167 193.142 27.1438 192.851 26.8444C192.559 26.5449 192.392 26.142 192.381 25.7187V24.4315C192.392 24.0083 192.559 23.6052 192.851 23.3059C193.142 23.0065 193.535 22.8334 193.946 22.8227H198.496C198.912 22.8227 199.309 22.6531 199.604 22.3513C199.897 22.0495 200.061 21.6404 200.061 21.2137C200.061 20.7869 199.897 20.3777 199.604 20.076C199.309 19.7742 198.912 19.6047 198.496 19.6047H193.905C193.492 19.5939 193.101 19.4209 192.809 19.1214C192.518 18.822 192.349 18.4191 192.338 17.9958V16.7086C192.349 16.2853 192.518 15.8824 192.809 15.583C193.101 15.2836 193.492 15.1105 193.905 15.0997H199.122C199.538 15.0997 199.935 14.9302 200.23 14.6284C200.523 14.3267 200.688 13.9175 200.688 13.4908C200.688 13.064 200.523 12.6548 200.23 12.3531C199.935 12.0513 199.538 11.8818 199.122 11.8818H192.861C192.616 11.8768 192.378 11.9599 192.188 12.1166C191.998 12.2734 191.866 12.494 191.817 12.7399L188.477 28.9366V29.2583C188.537 29.6343 188.73 29.9743 189.018 30.2123C189.308 30.4502 189.674 30.5691 190.043 30.5455H199.226C199.642 30.5455 200.039 30.3759 200.334 30.0742C200.627 29.7726 200.793 29.3633 200.793 28.9366C200.793 28.5099 200.627 28.1006 200.334 27.7988C200.039 27.4971 199.642 27.3276 199.226 27.3276H199.268Z" fill="#FFFFFF"/>
<path d="M83.43 11.989H81.3428C81.0358 11.993 80.7359 12.0857 80.4777 12.2563C80.2193 12.427 80.0129 12.6689 79.8818 12.9544L75.29 24.3242C75.29 24.3527 75.279 24.3799 75.2595 24.4C75.2398 24.4202 75.2133 24.4314 75.1857 24.4314C75.0814 24.4314 75.0814 24.4314 75.0814 24.3242L70.4895 12.9544C70.3775 12.6642 70.1985 12.4065 69.9678 12.2035C69.5504 11.8817 69.0285 12.3108 68.9241 12.8471L65.4803 29.2583C65.4531 29.444 65.4899 29.6338 65.5846 29.7946C65.7098 30.054 65.9034 30.2719 66.1433 30.4236C66.3831 30.5754 66.6597 30.6548 66.9413 30.6527H67.5675C67.9719 30.6312 68.3536 30.4535 68.6362 30.1552C68.9186 29.8568 69.0811 29.4599 69.0911 29.0437V18.532C69.0911 18.5036 69.1021 18.4763 69.1217 18.4562C69.1412 18.4361 69.1678 18.4248 69.1955 18.4248C69.2231 18.4248 69.2497 18.4361 69.2693 18.4562C69.2888 18.4763 69.2998 18.5036 69.2998 18.532L73.5786 29.58C73.6922 29.8786 73.8948 30.1325 74.1571 30.3058C74.4194 30.4791 74.7282 30.5631 75.0395 30.5455H75.4571C75.764 30.5415 76.0638 30.4488 76.3221 30.2781C76.5805 30.1074 76.787 29.8655 76.918 29.58L81.1967 18.6393C81.1967 18.6109 81.2078 18.5836 81.2272 18.5634C81.2469 18.5433 81.2734 18.532 81.301 18.532C81.3288 18.532 81.3553 18.5433 81.3748 18.5634C81.3945 18.5836 81.4055 18.6109 81.4055 18.6393V29.0437C81.4159 29.4671 81.5844 29.87 81.8757 30.1695C82.1669 30.4688 82.559 30.6418 82.9709 30.6527H83.597C84.0089 30.6418 84.4008 30.4688 84.6921 30.1695C84.9835 29.87 85.1518 29.4671 85.1623 29.0437V13.598C85.0909 13.169 84.8811 12.7772 84.567 12.4854C84.2528 12.1937 83.8524 12.0188 83.43 11.989Z" fill="#FFFFFF"/>
<path d="M131.226 20.6772H126.634C126.247 20.6772 125.875 20.8354 125.601 21.117C125.327 21.3986 125.173 21.7805 125.173 22.1788C125.173 22.577 125.327 22.9591 125.601 23.2407C125.875 23.5223 126.247 23.6805 126.634 23.6805H127.469C128.304 23.6805 129.139 24.4313 128.722 25.2895C128.095 26.6839 126.843 27.4346 124.86 27.4346C121.938 27.4346 120.164 25.1821 120.164 21.3207C120.164 17.4593 122.043 15.2068 124.86 15.2068C125.514 15.172 126.165 15.3119 126.75 15.6126C127.335 15.9134 127.835 16.3648 128.2 16.923C128.363 17.2357 128.603 17.4992 128.896 17.6874C129.189 17.8755 129.524 17.9817 129.869 17.9956H130.809C131.02 18.0132 131.232 17.9777 131.427 17.8922C131.622 17.8067 131.793 17.6737 131.927 17.5047C132.06 17.3357 132.152 17.1358 132.193 16.9224C132.235 16.7089 132.225 16.4882 132.165 16.2794C131.514 14.8731 130.473 13.6955 129.174 12.8942C127.875 12.0929 126.374 11.7033 124.86 11.7744C120.06 11.7744 116.407 15.314 116.407 21.3207C116.407 27.3274 119.851 30.8671 124.965 30.8671C129.557 30.8671 132.792 27.8637 132.792 23.0369V22.2861C132.796 22.0737 132.758 21.8625 132.681 21.6652C132.604 21.4681 132.489 21.2889 132.343 21.1386C132.196 20.9884 132.022 20.87 131.83 20.7907C131.638 20.7114 131.433 20.6728 131.226 20.6772Z" fill="#FFFFFF"/>
<path d="M104.093 13.0616C103.986 12.7504 103.789 12.4805 103.528 12.2886C103.266 12.0968 102.954 11.9921 102.632 11.989H99.9192C99.598 11.9921 99.2855 12.0968 99.024 12.2886C98.7628 12.4805 98.5652 12.7504 98.4581 13.0616L93.2402 28.5074C93.1618 28.749 93.1397 29.0058 93.1753 29.2578C93.2111 29.5096 93.3036 29.7493 93.4455 29.958C93.5875 30.1664 93.775 30.3378 93.9931 30.4584C94.2111 30.5792 94.4537 30.6456 94.7011 30.6527H95.5361C95.8572 30.6496 96.1697 30.545 96.4311 30.3532C96.6924 30.1612 96.89 29.8914 96.9971 29.58L97.6233 27.5421C97.7304 27.2308 97.9279 26.961 98.1892 26.7692C98.4506 26.5772 98.7631 26.4725 99.0843 26.4695H103.363C103.684 26.4725 103.997 26.5772 104.258 26.7692C104.519 26.961 104.717 27.2308 104.824 27.5421L105.45 29.58C105.557 29.8914 105.755 30.1612 106.016 30.3532C106.278 30.545 106.59 30.6496 106.911 30.6527H107.746C107.994 30.6456 108.236 30.5792 108.454 30.4584C108.672 30.3378 108.86 30.1664 109.002 29.958C109.144 29.7493 109.236 29.5096 109.272 29.2578C109.308 29.0058 109.285 28.749 109.207 28.5074L104.093 13.0616ZM101.443 23.2516H101.13C100.882 23.2445 100.64 23.1781 100.422 23.0573C100.204 22.9367 100.016 22.7653 99.8741 22.5568C99.732 22.3482 99.6395 22.1085 99.6038 21.8567C99.5682 21.6047 99.5904 21.3479 99.6687 21.1063L101.234 16.1723C101.234 16.1438 101.245 16.1165 101.265 16.0964C101.284 16.0763 101.311 16.065 101.338 16.065C101.366 16.065 101.393 16.0763 101.412 16.0964C101.432 16.1165 101.443 16.1438 101.443 16.1723L103.008 21.1063C103.065 21.3552 103.068 21.614 103.017 21.8642C102.966 22.1144 102.862 22.3501 102.713 22.5548C102.564 22.7592 102.373 22.9277 102.153 23.048C101.934 23.1685 101.691 23.238 101.443 23.2516Z" fill="#FFFFFF"/>
<path d="M143.332 11.989H142.601C142.189 11.9999 141.798 12.1729 141.506 12.4723C141.215 12.7717 141.047 13.1747 141.036 13.598V29.0437C141.047 29.4671 141.215 29.87 141.506 30.1695C141.798 30.4688 142.189 30.6418 142.601 30.6527H143.332C143.744 30.6418 144.136 30.4688 144.427 30.1695C144.718 29.87 144.887 29.4671 144.897 29.0437V13.598C144.87 13.1803 144.697 12.787 144.409 12.491C144.121 12.1951 143.738 12.0167 143.332 11.989Z" fill="#FFFFFF"/>
<path d="M161.595 15.2069C162.298 15.1871 162.994 15.3544 163.615 15.6927C164.238 16.031 164.763 16.5288 165.143 17.1376C165.278 17.5111 165.519 17.834 165.835 18.0637C166.153 18.2935 166.53 18.4193 166.917 18.4248H167.647C167.859 18.4424 168.07 18.4069 168.265 18.3214C168.46 18.2359 168.632 18.1029 168.765 17.9339C168.899 17.7649 168.991 17.565 169.032 17.3516C169.074 17.1381 169.064 16.9174 169.005 16.7086C167.96 13.4907 165.143 11.6672 161.491 11.6672C156.691 11.6672 153.037 15.0996 153.037 21.2137C153.037 27.3276 156.586 30.7601 161.491 30.7601C165.352 30.7601 167.96 28.6148 168.9 25.9332C168.96 25.7244 168.969 25.5037 168.928 25.2901C168.887 25.0767 168.794 24.8769 168.661 24.7079C168.528 24.5389 168.356 24.4058 168.161 24.3204C167.966 24.2348 167.754 24.1994 167.543 24.217H166.708C166.328 24.2514 165.964 24.3887 165.653 24.6148C165.341 24.8409 165.093 25.1477 164.935 25.5041C164.586 26.1183 164.082 26.6229 163.474 26.9633C162.867 27.3037 162.181 27.4668 161.491 27.4348C158.777 27.4348 156.899 25.2897 156.899 21.3209C156.899 17.3521 158.777 15.2069 161.595 15.2069Z" fill="#FFFFFF"/>
<path d="M215.653 11.989H210.747C210.336 11.9999 209.943 12.1729 209.652 12.4723C209.36 12.7717 209.193 13.1747 209.182 13.598V29.0437C209.193 29.4671 209.36 29.87 209.652 30.1695C209.943 30.4688 210.336 30.6418 210.747 30.6527H215.653C221.184 30.6527 224.523 27.113 224.523 21.3208C224.523 15.5287 221.079 11.989 215.653 11.989ZM215.443 27.2204H214.609C214.197 27.2095 213.805 27.0365 213.513 26.737C213.222 26.4376 213.055 26.0346 213.044 25.6114V16.9231C213.055 16.4998 213.222 16.0968 213.513 15.7974C213.805 15.498 214.197 15.325 214.609 15.3142H215.443C218.887 15.3142 220.662 17.1376 220.662 21.2136C220.662 25.2896 218.887 27.2204 215.443 27.2204Z" fill="#FFFFFF"/>
<path d="M243.308 27.3274H237.985C237.574 27.3165 237.181 27.1436 236.89 26.8442C236.598 26.5447 236.431 26.1418 236.42 25.7184V24.4312C236.431 24.008 236.598 23.605 236.89 23.3056C237.181 23.0063 237.574 22.8332 237.985 22.8224H242.577C242.992 22.8224 243.391 22.6528 243.684 22.3511C243.977 22.0493 244.143 21.6402 244.143 21.2135C244.143 20.7867 243.977 20.3775 243.684 20.0757C243.391 19.774 242.992 19.6045 242.577 19.6045H237.985C237.574 19.5936 237.181 19.4206 236.89 19.1212C236.598 18.8218 236.431 18.4189 236.42 17.9956V16.7084C236.431 16.2851 236.598 15.8822 236.89 15.5827C237.181 15.2833 237.574 15.1103 237.985 15.0995H243.204C243.618 15.0995 244.017 14.93 244.31 14.6282C244.603 14.3265 244.769 13.9172 244.769 13.4905C244.769 13.0638 244.603 12.6546 244.31 12.3528C244.017 12.0511 243.618 11.8816 243.204 11.8816H234.124C233.713 11.8924 233.32 12.0654 233.028 12.3649C232.737 12.6643 232.57 13.0672 232.559 13.4905V28.9364C232.57 29.3596 232.737 29.7626 233.028 30.062C233.32 30.3615 233.713 30.5344 234.124 30.5453H243.308C243.719 30.5344 244.112 30.3615 244.402 30.062C244.694 29.7626 244.862 29.3596 244.873 28.9364C244.878 28.7239 244.839 28.5127 244.763 28.3154C244.686 28.1183 244.571 27.9392 244.424 27.7888C244.278 27.6386 244.103 27.5202 243.911 27.441C243.719 27.3616 243.514 27.3231 243.308 27.3274Z" fill="#FFFFFF"/>
<path d="M266.893 11.989H266.161C265.75 11.9999 265.357 12.1729 265.066 12.4723C264.776 12.7717 264.607 13.1747 264.597 13.598V23.5733C264.597 23.6807 264.597 23.6807 264.492 23.6807H264.388L257.083 12.7399C256.941 12.5355 256.753 12.37 256.535 12.2577C256.316 12.1455 256.075 12.0901 255.831 12.0963H254.849C254.438 12.1071 254.045 12.2801 253.754 12.5796C253.462 12.879 253.295 13.2819 253.284 13.7052V29.1511C253.295 29.5743 253.462 29.9773 253.754 30.2767C254.045 30.576 254.438 30.7492 254.849 30.76H255.579C255.992 30.7492 256.383 30.576 256.675 30.2767C256.966 29.9773 257.135 29.5743 257.145 29.1511V19.0683C257.145 19.0399 257.156 19.0126 257.176 18.9925C257.196 18.9724 257.222 18.9611 257.25 18.9611H257.354L264.764 29.9018C264.905 30.1063 265.094 30.2717 265.311 30.384C265.529 30.4962 265.772 30.5516 266.016 30.5455H266.954C267.367 30.5346 267.758 30.3616 268.05 30.0621C268.341 29.7628 268.51 29.3599 268.521 28.9365V13.4907C268.45 13.0902 268.251 12.7253 267.956 12.4534C267.662 12.1815 267.287 12.0182 266.893 11.989Z" fill="#FFFFFF"/>
</svg>

<svg xmlns="http://www.w3.org/2000/svg" width="270" height="42" fill="none" viewBox="0 0 270 42"><path fill="#fff" d="m36.197 13.147 2.992 3.667c.342.412.646.75.769.943a5.02 5.02 0 0 1 1.396 3.487c-.084 1.541-1.047 2.59-1.939 3.713l-2.094 2.564-1.092 1.329a.32.32 0 0 0-.046.34.3.3 0 0 0 .285.178h10.916c1.667 0 3.767 1.461 3.644 3.68a3.87 3.87 0 0 1-1.088 2.688 3.67 3.67 0 0 1-2.615 1.118H30.232c-1.125 0-4.15.127-4.996-2.564a3.3 3.3 0 0 1-.07-1.74 7.7 7.7 0 0 1 1.15-2.365c.859-1.328 1.79-2.657 2.707-3.945 1.183-1.688 2.398-3.322 3.594-5.042a.324.324 0 0 0 0-.392l-4.343-5.314a.3.3 0 0 0-.243-.124.3.3 0 0 0-.242.124c-1.163 1.614-6.256 8.761-7.342 10.21-1.085 1.447-3.76 1.527-5.24 0l-6.793-7.008a.31.31 0 0 0-.338-.07.3.3 0 0 0-.14.118.33.33 0 0 0-.052.177v13.478a4.68 4.68 0 0 1-.788 2.681 4.48 4.48 0 0 1-2.159 1.71 3.62 3.62 0 0 1-3.371-.492 3.8 3.8 0 0 1-1.15-1.36A3.9 3.9 0 0 1 0 33.189V8.956a4.23 4.23 0 0 1 .874-2.397 4.04 4.04 0 0 1 2.073-1.416 4 4 0 0 1 2.143.005 4.1 4.1 0 0 1 1.85 1.11l10.444 10.748a.3.3 0 0 0 .242.093.3.3 0 0 0 .224-.133l7.419-10.554a3.7 3.7 0 0 1 1.259-1.015 3.6 3.6 0 0 1 1.558-.374h19.298c.527.001 1.05.118 1.53.343s.91.552 1.257.961.606.89.758 1.409c.152.52.195 1.067.125 1.605a3.93 3.93 0 0 1-1.297 2.395c-.7.61-1.591.94-2.51.926H36.443a.3.3 0 0 0-.153.047.318.318 0 0 0-.092.438M199.268 27.328h-5.322a1.59 1.59 0 0 1-1.095-.484 1.67 1.67 0 0 1-.47-1.125V24.43c.011-.423.178-.826.47-1.125.291-.3.684-.473 1.095-.483h4.55c.416 0 .813-.17 1.108-.472.293-.302.457-.71.457-1.137s-.164-.836-.457-1.138a1.55 1.55 0 0 0-1.108-.471h-4.591a1.59 1.59 0 0 1-1.096-.484c-.291-.299-.46-.702-.471-1.125v-1.287c.011-.424.18-.827.471-1.126.292-.3.683-.473 1.096-.483h5.217c.416 0 .813-.17 1.108-.472.293-.301.458-.71.458-1.137s-.165-.836-.458-1.138a1.55 1.55 0 0 0-1.108-.471h-6.261a1.02 1.02 0 0 0-.673.235c-.19.156-.322.377-.371.623l-3.34 16.197v.321c.06.376.253.716.541.954.29.238.656.357 1.025.334h9.183c.416 0 .813-.17 1.108-.472a1.635 1.635 0 0 0 0-2.275 1.55 1.55 0 0 0-1.108-.471zM83.43 11.989h-2.087a1.6 1.6 0 0 0-.865.267 1.67 1.67 0 0 0-.596.698l-4.592 11.37a.1.1 0 0 1-.03.076.1.1 0 0 1-.074.031c-.105 0-.105 0-.105-.107l-4.591-11.37a1.9 1.9 0 0 0-.522-.75c-.418-.322-.94.107-1.044.643L65.48 29.258a.82.82 0 0 0 .105.537c.125.259.318.477.558.629.24.151.517.23.798.229h.626c.405-.022.787-.2 1.07-.498.282-.298.444-.695.454-1.111V18.532c0-.028.011-.056.03-.076a.103.103 0 0 1 .148 0q.03.032.03.076l4.28 11.048c.113.299.316.553.578.726s.571.257.883.24h.417c.307-.005.607-.097.865-.268a1.67 1.67 0 0 0 .596-.698l4.279-10.94a.1.1 0 0 1 .03-.077.103.103 0 0 1 .148 0q.03.032.03.076v10.405c.01.423.18.826.47 1.125.292.3.684.473 1.096.484h.626c.412-.011.804-.184 1.095-.483.292-.3.46-.703.47-1.126V13.598a1.96 1.96 0 0 0-.595-1.113 1.86 1.86 0 0 0-1.137-.496M131.226 20.677h-4.592c-.387 0-.759.158-1.033.44a1.52 1.52 0 0 0-.428 1.062c0 .398.154.78.428 1.062.274.281.646.44 1.033.44h.835c.835 0 1.67.75 1.253 1.608-.627 1.395-1.879 2.146-3.862 2.146-2.922 0-4.696-2.253-4.696-6.114 0-3.862 1.879-6.114 4.696-6.114a3.7 3.7 0 0 1 1.89.406c.585.3 1.085.752 1.45 1.31.163.313.403.576.696.764s.628.295.973.309h.94c.211.017.423-.018.618-.104a1.3 1.3 0 0 0 .5-.387 1.371 1.371 0 0 0 .238-1.225 7.84 7.84 0 0 0-2.991-3.386 7.54 7.54 0 0 0-4.314-1.12c-4.8 0-8.453 3.54-8.453 9.547 0 6.006 3.444 9.546 8.558 9.546 4.592 0 7.827-3.003 7.827-7.83v-.75a1.6 1.6 0 0 0-.111-.622 1.541 1.541 0 0 0-.851-.874 1.5 1.5 0 0 0-.604-.114M104.093 13.062a1.6 1.6 0 0 0-.565-.773 1.54 1.54 0 0 0-.896-.3h-2.713a1.54 1.54 0 0 0-.895.3 1.6 1.6 0 0 0-.566.773L93.24 28.507a1.67 1.67 0 0 0 .206 1.451c.142.208.329.38.547.5.218.121.46.188.708.195h.835c.321-.003.634-.108.895-.3s.459-.462.566-.773l.626-2.038c.107-.311.305-.581.566-.773.262-.192.574-.296.895-.3h4.279c.321.003.634.108.895.3s.459.462.566.773l.626 2.038c.107.311.305.581.566.773.262.192.574.297.895.3h.835a1.55 1.55 0 0 0 .708-.195c.218-.12.406-.292.548-.5a1.66 1.66 0 0 0 .205-1.45zm-2.65 10.19h-.313a1.55 1.55 0 0 1-.708-.195 1.6 1.6 0 0 1-.548-.5 1.66 1.66 0 0 1-.205-1.45l1.565-4.935a.107.107 0 0 1 .104-.107q.044 0 .074.031.03.032.031.076l1.565 4.934a1.8 1.8 0 0 1-.295 1.449c-.149.204-.34.373-.56.493-.219.12-.462.19-.71.204M143.332 11.989h-.731c-.412.01-.803.184-1.095.483-.291.3-.459.703-.47 1.126v15.446c.011.423.179.826.47 1.125.292.3.683.473 1.095.484h.731c.412-.011.804-.184 1.095-.483.291-.3.46-.703.47-1.126V13.598a1.75 1.75 0 0 0-.488-1.107 1.66 1.66 0 0 0-1.077-.502M161.595 15.207a4 4 0 0 1 2.02.486 4.1 4.1 0 0 1 1.528 1.445c.135.373.376.696.692.926.318.23.695.355 1.082.36h.73c.212.018.423-.017.618-.103s.367-.218.5-.387c.134-.17.226-.369.267-.582a1.4 1.4 0 0 0-.027-.643c-1.045-3.218-3.862-5.042-7.514-5.042-4.8 0-8.454 3.433-8.454 9.547s3.549 9.546 8.454 9.546c3.861 0 6.469-2.145 7.409-4.827a1.358 1.358 0 0 0-.239-1.225 1.3 1.3 0 0 0-.5-.388 1.3 1.3 0 0 0-.618-.103h-.835c-.38.034-.744.172-1.055.398-.312.226-.56.533-.718.89a3.84 3.84 0 0 1-1.461 1.458 3.7 3.7 0 0 1-1.983.472c-2.714 0-4.592-2.145-4.592-6.114s1.878-6.114 4.696-6.114M215.653 11.989h-4.906c-.411.01-.804.184-1.095.483-.292.3-.459.703-.47 1.126v15.446c.011.423.178.826.47 1.125.291.3.684.473 1.095.484h4.906c5.531 0 8.87-3.54 8.87-9.332s-3.444-9.332-8.87-9.332m-.21 15.231h-.834a1.6 1.6 0 0 1-1.096-.483 1.68 1.68 0 0 1-.469-1.126v-8.688c.011-.423.178-.826.469-1.126.292-.299.684-.472 1.096-.483h.834c3.444 0 5.219 1.824 5.219 5.9s-1.775 6.006-5.219 6.006M243.308 27.327h-5.323a1.59 1.59 0 0 1-1.095-.483 1.67 1.67 0 0 1-.47-1.126v-1.287c.011-.423.178-.826.47-1.125.291-.3.684-.473 1.095-.484h4.592c.415 0 .814-.17 1.107-.47.293-.303.459-.712.459-1.139 0-.426-.166-.835-.459-1.137a1.54 1.54 0 0 0-1.107-.471h-4.592a1.59 1.59 0 0 1-1.095-.484 1.67 1.67 0 0 1-.47-1.125v-1.288c.011-.423.178-.826.47-1.125.291-.3.684-.473 1.095-.483h5.219c.414 0 .813-.17 1.106-.472s.459-.71.459-1.137-.166-.836-.459-1.138a1.54 1.54 0 0 0-1.106-.471h-9.08a1.6 1.6 0 0 0-1.096.483c-.291.3-.458.702-.469 1.126v15.445c.011.424.178.827.469 1.126.292.3.685.472 1.096.483h9.184c.411-.01.804-.184 1.094-.483.292-.3.46-.702.471-1.126a1.6 1.6 0 0 0-.11-.62 1.57 1.57 0 0 0-.852-.875 1.5 1.5 0 0 0-.603-.114M266.893 11.989h-.732c-.411.01-.804.184-1.095.483-.29.3-.459.703-.469 1.126v9.975c0 .108 0 .108-.105.108h-.104l-7.305-10.941a1.5 1.5 0 0 0-.548-.482 1.46 1.46 0 0 0-.704-.162h-.982c-.411.011-.804.184-1.095.484-.292.299-.459.702-.47 1.125v15.446c.011.423.178.826.47 1.126.291.299.684.472 1.095.483h.73c.413-.01.804-.184 1.096-.483.291-.3.46-.703.47-1.126V19.068a.107.107 0 0 1 .105-.107h.104l7.41 10.94c.141.205.33.37.547.483s.461.168.705.162h.938c.413-.011.804-.184 1.096-.484.291-.3.46-.702.471-1.126V13.491a1.85 1.85 0 0 0-.565-1.038 1.76 1.76 0 0 0-1.063-.464"/></svg>
